resources/haticons/SVG/accessibility_new.svg

<!-- Generated by IcoMoon.io -->
<svg version="1.1" xmlns="http://www.w3.org/2000/svg" width="24" height="24" viewBox="0 0 24 24">
<title>accessibility_new</title>
<path d="M12 6q-0.797 0-1.406-0.609t-0.609-1.406 0.609-1.383 1.406-0.586 1.406 0.586 0.609 1.383-0.609 1.406-1.406 0.609zM20.484 6l0.516 2.016q-2.344 0.656-6 0.984v12.984h-2.016v-6h-1.969v6h-2.016v-12.984q-3.656-0.328-6-0.984l0.516-2.016q3.656 0.984 8.484 0.984t8.484-0.984z"></path>
</svg>

<svg xmlns="http://www.w3.org/2000/svg" width="24" height="24"><path d="M12 6q-.797 0-1.406-.609t-.609-1.406.609-1.383T12 2.016t1.406.586.609 1.383-.609 1.406T12 6zm8.484 0L21 8.016q-2.344.656-6 .984v12.984h-2.016v-6h-1.969v6H8.999V9q-3.656-.328-6-.984L3.515 6q3.656.984 8.484.984T20.483 6z"/></svg>
